X:119
T:Bill of Rights, The
M:6/8
L:1/8
B:Thompson's Compleat Collection of 200 Favourite Country Dances, vol. 3 (London, 1773)
Z:Transcribed and edited by Flynn Titford-Mock, 2007
Z:abc's:AK/Fiddler's Companion
K:G
g2f e2d | efg d3 | c2B A2G | ABG FED | g2f e2d | efg d2c | BGB AFA | G3 [G,3G3] :|
|: B2c d2=f | e2d c2B | A2B c2e | d2c B2A | G2A B2d | c2B A2G |
FAG FED | FAG FED | dBg ecg | dBg ecg | BGB AFA | G3 [G,3G3] :|

